X:1
T:III. Recitativ
T:III. Recitativ
T:(Sopran, Baß)
T:Johann Sebastian Bach (1685-1750)
T:BWV 211
C:Johann Sebastian Bach (1685-1750)
Z:BWV 211
%%score [ [ 1 2 ] 3 ] { ( 4 6 ) | 5 }
L:1/8
Q:1/4=71
M:4/4
K:D
V:1 treble nm="Lieschen"
V:2 bass nm="Schlendrian"
V:3 bass nm="Violoncello"
V:4 treble nm="Cembalo"
V:6 treble 
V:5 bass 
V:1
"^Adagio" z8[Q:1/4=71]"^Adagio" | z8[Q:1/4=144]"^Allegro" | %2
w: ||
[Q:1/4=71]"^Adagio" z8[Q:1/4=71]"^Adagio" | z4 z2 z c | A A z2 A c c F | ^d z z B B c ^d d/ e/ | %6
w: |Herr|Va- ter, seid doch nicht so|scharf! Wenn ich des Ta- ges nicht|
 f f/ f/ a f ^d d f B | e z/ B/ ^G A B B d c | %8
w: drei- mal mein Schäl- chen Cof- fee trin- ken|darf, so werd ich ja zu mei- ner|
[Q:1/4=25]{F} ^E z/[Q:1/4=50]"^Largo" ^G/ A B c F ^E F | F C[Q:1/4=50] z2[Q:1/4=20] z4[Q:1/4=35] |] %10
w: Qual wie ein ver- dorr- tes Zie- gen-|Brät- chen.|
V:2
 z!f! B,, A, F, ^D, z/ D,/ =C B, | G, G, z ^C z C,/ D,/ E,/ E,/ G,/ E,/ | %2
w: Du bö- ses Kind, du lo- ses|Mäd- chen, ach! wenn er- lang' ich mei- nen|
 D, z z B,, B, ^G, ^E, A, | F,2 z2 z4 | z8 | z8 | z8 | z8 | z8 | z8 |] %10
w: Zweck: thu' mir den Cof- fee|weg!|||||||
V:3
!f! .^D,2 z2 z4 | .E,2 z2 .^A,,2 z2 | .B,, z D, z z4 | z2 C,2 F,,4- | F,,2 z2 F,, z z2 | %5
 A,,2 z2 z4 | .A,,2 z2 z2 .A,,2 | ^G,,2 z2 z4 | B,,2 z2 A,,2 D,2 | z2 C,2 F,,4 |] %10
V:4
 [B,^DFB]2 z2 z4 | [B,EG]2 z2 [^A,CEF]2 z2 | [B,DF] z [D^GB] z z4 | z2 F^E F4- | F2 z2 F z z2 | %5
 [A,^DF]2 z2 z4 | .[A,^DF]2 z2 z2 .[A,DF]2 | [^GBe]2 z2 z4 | [B,DF]2 z2 [CFA]2 [DFB]2 | %9
 z2 FP^E F4 |] %10
V:5
!f! .^D,2 z2 z4 | .E,2 z2 .^A,,2 z2 | .B,, z D, z z4 | z2 C,2 F,,4- | F,,2 z2 F,, z z2 | %5
 A,,2 z2 z4 | .A,,2 z2 z2 .A,,2 | ^G,,2 z2 z4 | B,,2 z2 A,,2 D,2 | z2 C,2 F,,4 |] %10
V:6
 x8 | x8 | x8 | x2 [^G,C]2 [A,C]4- | [A,C]2 x2 [A,C] x3 | x8 | x8 | x8 | x8 | x2 [^G,C]2 [A,C]4 |] %10

